X:2346
T:Butter-Milk and Pratees Jig
M:6/8
L:1/8
K:D
ag|fed fga|fed AFD|FAd def|fee eag|!
fed fga|fed AFD|FAd efa|fdd d:|!
|:ag|fdd fdd|fdd fga|e=c=c e=c=c|e=c=c efg|!
fdd fdd|fdd fga|fga fec|edd d!
|:


